build/redact/UnwrapOutline.svg

<svg xmlns="http://www.w3.org/2000/svg" fill="none" viewBox="0 0 24 24" focusable="false"><path d="M0 0H24V24H0z"/><path fill="#74767B" fill-rule="evenodd" d="M6.87959 15.0363C6.74959 15.1763 6.57959 15.2463 6.39959 15.2463C6.23959 15.2463 6.08959 15.1963 5.95959 15.0763L3.24959 12.5008C2.93959 12.2208 2.93959 11.7408 3.24959 11.4608L5.95959 8.9963C6.22959 8.7563 6.63959 8.7763 6.87959 9.0363C7.11959 9.3063 7.10959 9.7163 6.83959 9.9563L5.28902 11.3308C7.05199 11.3308 7.43999 11.3347 7.89539 11.3392C8.30823 11.3434 8.77646 11.348 10.3747 11.3509C10.7332 11.3515 11.0235 11.6424 11.0235 12.0009C11.0235 12.3604 10.7318 12.6516 10.3724 12.6509L5.28514 12.6338L6.83959 14.1163C7.09959 14.3563 7.11959 14.7663 6.87959 15.0363ZM17.6187 15.2463C17.4387 15.2463 17.2687 15.1763 17.1387 15.0363C16.8987 14.7663 16.9187 14.3563 17.1787 14.1163L18.7332 12.6338L13.6459 12.6509C13.2865 12.6516 12.9948 12.3604 12.9948 12.0009C12.9948 11.6424 13.2851 11.3515 13.6436 11.3509C15.2418 11.348 15.7101 11.3434 16.1229 11.3392C16.5783 11.3347 16.9663 11.3308 18.7293 11.3308L17.1787 9.9563C16.9087 9.7163 16.8987 9.3063 17.1387 9.0363C17.3787 8.7763 17.7887 8.7563 18.0587 8.9963L20.7687 11.4608C21.0787 11.7408 21.0787 12.2208 20.7687 12.5008L18.0587 15.0763C17.9287 15.1963 17.7787 15.2463 17.6187 15.2463Z"/></svg>

<svg xmlns="http://www.w3.org/2000/svg" fill="none" viewBox="0 0 24 24" focusable="false"><path fill="#74767B" fill-rule="evenodd" d="M6.39 15.24c.18 0 .35-.07.48-.21.24-.27.22-.68-.04-.92l-1.55-1.48 5.09.02c.36 0 .65-.29.65-.65s-.29-.65-.65-.65c-1.6-.01-2.07-.01-2.48-.02H5.28l1.55-1.38a.65.65 0 0 0 .04-.92.66.66 0 0 0-.92-.04l-2.71 2.47c-.31.28-.31.76 0 1.04l2.71 2.57c.13.12.28.17.44.17m11.22 0c-.18 0-.35-.07-.48-.21a.66.66 0 0 1 .04-.92l1.56-1.48-5.09.02c-.36 0-.65-.29-.65-.65s.29-.65.65-.65c1.6-.01 2.07-.01 2.48-.02h2.6l-1.55-1.38a.65.65 0 0 1-.04-.92c.24-.26.65-.28.92-.04l2.71 2.47c.31.28.31.76 0 1.04l-2.71 2.57c-.13.12-.28.17-.44.17"/></svg>
